X: 1
T: Larch
M: 4/4
L: 1/8
R: reel
K: Dmaj
d2 (3ddd cdec|dfed cAAA|B2GBA2FA|EFGA BABc|
d2 (3ddd cdec|dfed cedc|BAGB AGFA|1E3F D3A:|2E3F D3D||
|:E2CE A,ECE|FDFA d3A|B2dB AF3|BAGF EDCD|
EC3A,CEG|FDFAd3A|BdcB AF3|EDCE D3D:|
